X:31
T:Tidy Anne
Z: id:dc-slide-32
M:6/8
L:1/8
K:D Major
GFE|D2d BAF|D2d B2A|F2E EFE|F2E EFE|!
D2d BAF|D2d B2c|def edc|d2A:|!
d2e|f2f fed|e2e edc|d2d dcB|A3 d2e|!
f2f fed|e2e edc|def edc|d2A:|!

